images/FrontendDeveloper.svg

<svg width="146" height="16" viewBox="0 0 146 16" fill="none" xmlns="http://www.w3.org/2000/svg">
<path d="M6.8575 6.97656H2.08406V12H0.584061V0.625H7.63094V1.85938H2.08406V5.75H6.8575V6.97656ZM13.5641 4.84375C13.3453 4.80729 13.1083 4.78906 12.8531 4.78906C11.9052 4.78906 11.262 5.19271 10.9234 6V12H9.47812V3.54688H10.8844L10.9078 4.52344C11.3818 3.76823 12.0536 3.39062 12.9234 3.39062C13.2047 3.39062 13.4182 3.42708 13.5641 3.5V4.84375ZM14.8409 7.69531C14.8409 6.86719 15.0024 6.1224 15.3253 5.46094C15.6534 4.79948 16.1066 4.28906 16.6847 3.92969C17.268 3.57031 17.9321 3.39062 18.6769 3.39062C19.8279 3.39062 20.7576 3.78906 21.4659 4.58594C22.1795 5.38281 22.5362 6.44271 22.5362 7.76562V7.86719C22.5362 8.6901 22.3774 9.42969 22.0597 10.0859C21.7472 10.737 21.2967 11.2448 20.7081 11.6094C20.1248 11.974 19.4529 12.1562 18.6925 12.1562C17.5467 12.1562 16.617 11.7578 15.9034 10.9609C15.1951 10.1641 14.8409 9.10938 14.8409 7.79688V7.69531ZM16.2941 7.86719C16.2941 8.80469 16.5102 9.55729 16.9425 10.125C17.38 10.6927 17.9633 10.9766 18.6925 10.9766C19.4269 10.9766 20.0102 10.6901 20.4425 10.1172C20.8748 9.53906 21.0909 8.73177 21.0909 7.69531C21.0909 6.76823 20.8696 6.01823 20.4269 5.44531C19.9894 4.86719 19.406 4.57812 18.6769 4.57812C17.9633 4.57812 17.3878 4.86198 16.9503 5.42969C16.5128 5.9974 16.2941 6.8099 16.2941 7.86719ZM26.1959 3.54688L26.2428 4.60938C26.8886 3.79688 27.7324 3.39062 28.7741 3.39062C30.5605 3.39062 31.4616 4.39844 31.4772 6.41406V12H30.0319V6.40625C30.0267 5.79688 29.886 5.34635 29.61 5.05469C29.3392 4.76302 28.9147 4.61719 28.3366 4.61719C27.8678 4.61719 27.4564 4.74219 27.1022 4.99219C26.748 5.24219 26.472 5.57031 26.2741 5.97656V12H24.8287V3.54688H26.1959ZM36.0978 1.5V3.54688H37.6759V4.66406H36.0978V9.90625C36.0978 10.2448 36.1681 10.5 36.3087 10.6719C36.4494 10.8385 36.689 10.9219 37.0275 10.9219C37.1942 10.9219 37.4233 10.8906 37.715 10.8281V12C37.3348 12.1042 36.965 12.1562 36.6056 12.1562C35.9598 12.1562 35.4728 11.9609 35.1447 11.5703C34.8166 11.1797 34.6525 10.625 34.6525 9.90625V4.66406H33.1134V3.54688H34.6525V1.5H36.0978ZM43.3591 12.1562C42.2132 12.1562 41.2809 11.7812 40.5622 11.0312C39.8434 10.276 39.4841 9.26823 39.4841 8.00781V7.74219C39.4841 6.90365 39.6429 6.15625 39.9606 5.5C40.2835 4.83854 40.7315 4.32292 41.3044 3.95312C41.8825 3.57812 42.5075 3.39062 43.1794 3.39062C44.2783 3.39062 45.1325 3.7526 45.7419 4.47656C46.3512 5.20052 46.6559 6.23698 46.6559 7.58594V8.1875H40.9294C40.9502 9.02083 41.1924 9.69531 41.6559 10.2109C42.1247 10.7214 42.7184 10.9766 43.4372 10.9766C43.9476 10.9766 44.3799 10.8724 44.7341 10.6641C45.0882 10.4557 45.3981 10.1797 45.6637 9.83594L46.5466 10.5234C45.8382 11.612 44.7757 12.1562 43.3591 12.1562ZM43.1794 4.57812C42.596 4.57812 42.1065 4.79167 41.7106 5.21875C41.3148 5.64062 41.07 6.23438 40.9762 7H45.2106V6.89062C45.169 6.15625 44.971 5.58854 44.6169 5.1875C44.2627 4.78125 43.7835 4.57812 43.1794 4.57812ZM50.1828 3.54688L50.2297 4.60938C50.8755 3.79688 51.7193 3.39062 52.7609 3.39062C54.5474 3.39062 55.4484 4.39844 55.4641 6.41406V12H54.0187V6.40625C54.0135 5.79688 53.8729 5.34635 53.5969 5.05469C53.326 4.76302 52.9016 4.61719 52.3234 4.61719C51.8547 4.61719 51.4432 4.74219 51.0891 4.99219C50.7349 5.24219 50.4589 5.57031 50.2609 5.97656V12H48.8156V3.54688H50.1828ZM57.7722 7.70312C57.7722 6.40625 58.0795 5.36458 58.6941 4.57812C59.3086 3.78646 60.1133 3.39062 61.1081 3.39062C62.0977 3.39062 62.8816 3.72917 63.4597 4.40625V0H64.905V12H63.5769L63.5066 11.0938C62.9284 11.8021 62.1237 12.1562 61.0925 12.1562C60.1133 12.1562 59.3139 11.7552 58.6941 10.9531C58.0795 10.151 57.7722 9.10417 57.7722 7.8125V7.70312ZM59.2175 7.86719C59.2175 8.82552 59.4154 9.57552 59.8112 10.1172C60.2071 10.6589 60.754 10.9297 61.4519 10.9297C62.3685 10.9297 63.0378 10.5182 63.4597 9.69531V5.8125C63.0274 5.01562 62.3633 4.61719 61.4675 4.61719C60.7592 4.61719 60.2071 4.89062 59.8112 5.4375C59.4154 5.98438 59.2175 6.79427 59.2175 7.86719ZM72.3103 12V0.625H75.5212C76.5108 0.625 77.3858 0.84375 78.1462 1.28125C78.9067 1.71875 79.4926 2.34115 79.9041 3.14844C80.3207 3.95573 80.5317 4.88281 80.5369 5.92969V6.65625C80.5369 7.72917 80.3285 8.66927 79.9119 9.47656C79.5004 10.2839 78.9093 10.9036 78.1384 11.3359C77.3728 11.7682 76.4796 11.9896 75.4587 12H72.3103ZM73.8103 1.85938V10.7734H75.3884C76.5447 10.7734 77.4431 10.4141 78.0837 9.69531C78.7296 8.97656 79.0525 7.95312 79.0525 6.625V5.96094C79.0525 4.66927 78.7478 3.66667 78.1384 2.95312C77.5343 2.23438 76.6749 1.86979 75.5603 1.85938H73.8103ZM86.5716 12.1562C85.4257 12.1562 84.4934 11.7812 83.7747 11.0312C83.0559 10.276 82.6966 9.26823 82.6966 8.00781V7.74219C82.6966 6.90365 82.8554 6.15625 83.1731 5.5C83.496 4.83854 83.944 4.32292 84.5169 3.95312C85.095 3.57812 85.72 3.39062 86.3919 3.39062C87.4908 3.39062 88.345 3.7526 88.9544 4.47656C89.5638 5.20052 89.8684 6.23698 89.8684 7.58594V8.1875H84.1419C84.1627 9.02083 84.4049 9.69531 84.8684 10.2109C85.3372 10.7214 85.9309 10.9766 86.6497 10.9766C87.1601 10.9766 87.5924 10.8724 87.9466 10.6641C88.3007 10.4557 88.6106 10.1797 88.8763 9.83594L89.7591 10.5234C89.0507 11.612 87.9882 12.1562 86.5716 12.1562ZM86.3919 4.57812C85.8085 4.57812 85.319 4.79167 84.9231 5.21875C84.5273 5.64062 84.2825 6.23438 84.1888 7H88.4231V6.89062C88.3815 6.15625 88.1835 5.58854 87.8294 5.1875C87.4752 4.78125 86.996 4.57812 86.3919 4.57812ZM94.7078 10.0391L96.8016 3.54688H98.2781L95.2469 12H94.1453L91.0828 3.54688H92.5594L94.7078 10.0391ZM103.547 12.1562C102.401 12.1562 101.469 11.7812 100.75 11.0312C100.032 10.276 99.6722 9.26823 99.6722 8.00781V7.74219C99.6722 6.90365 99.831 6.15625 100.149 5.5C100.472 4.83854 100.92 4.32292 101.493 3.95312C102.071 3.57812 102.696 3.39062 103.368 3.39062C104.466 3.39062 105.321 3.7526 105.93 4.47656C106.539 5.20052 106.844 6.23698 106.844 7.58594V8.1875H101.118C101.138 9.02083 101.381 9.69531 101.844 10.2109C102.313 10.7214 102.907 10.9766 103.625 10.9766C104.136 10.9766 104.568 10.8724 104.922 10.6641C105.276 10.4557 105.586 10.1797 105.852 9.83594L106.735 10.5234C106.026 11.612 104.964 12.1562 103.547 12.1562ZM103.368 4.57812C102.784 4.57812 102.295 4.79167 101.899 5.21875C101.503 5.64062 101.258 6.23438 101.164 7H105.399V6.89062C105.357 6.15625 105.159 5.58854 104.805 5.1875C104.451 4.78125 103.972 4.57812 103.368 4.57812ZM110.574 12H109.129V0H110.574V12ZM112.992 7.69531C112.992 6.86719 113.153 6.1224 113.476 5.46094C113.804 4.79948 114.257 4.28906 114.835 3.92969C115.419 3.57031 116.083 3.39062 116.827 3.39062C117.979 3.39062 118.908 3.78906 119.617 4.58594C120.33 5.38281 120.687 6.44271 120.687 7.76562V7.86719C120.687 8.6901 120.528 9.42969 120.21 10.0859C119.898 10.737 119.447 11.2448 118.859 11.6094C118.275 11.974 117.604 12.1562 116.843 12.1562C115.697 12.1562 114.768 11.7578 114.054 10.9609C113.346 10.1641 112.992 9.10938 112.992 7.79688V7.69531ZM114.445 7.86719C114.445 8.80469 114.661 9.55729 115.093 10.125C115.531 10.6927 116.114 10.9766 116.843 10.9766C117.577 10.9766 118.161 10.6901 118.593 10.1172C119.025 9.53906 119.242 8.73177 119.242 7.69531C119.242 6.76823 119.02 6.01823 118.577 5.44531C118.14 4.86719 117.557 4.57812 116.827 4.57812C116.114 4.57812 115.538 4.86198 115.101 5.42969C114.663 5.9974 114.445 6.8099 114.445 7.86719ZM130.12 7.86719C130.12 9.15365 129.826 10.1901 129.237 10.9766C128.649 11.763 127.852 12.1562 126.847 12.1562C125.821 12.1562 125.013 11.8307 124.425 11.1797V15.25H122.979V3.54688H124.3L124.37 4.48438C124.959 3.75521 125.776 3.39062 126.823 3.39062C127.839 3.39062 128.641 3.77344 129.229 4.53906C129.823 5.30469 130.12 6.36979 130.12 7.73438V7.86719ZM128.675 7.70312C128.675 6.75 128.472 5.9974 128.065 5.44531C127.659 4.89323 127.102 4.61719 126.393 4.61719C125.518 4.61719 124.862 5.00521 124.425 5.78125V9.82031C124.857 10.5911 125.518 10.9766 126.409 10.9766C127.102 10.9766 127.651 10.7031 128.057 10.1562C128.469 9.60417 128.675 8.78646 128.675 7.70312ZM135.952 12.1562C134.806 12.1562 133.873 11.7812 133.155 11.0312C132.436 10.276 132.077 9.26823 132.077 8.00781V7.74219C132.077 6.90365 132.235 6.15625 132.553 5.5C132.876 4.83854 133.324 4.32292 133.897 3.95312C134.475 3.57812 135.1 3.39062 135.772 3.39062C136.871 3.39062 137.725 3.7526 138.334 4.47656C138.944 5.20052 139.248 6.23698 139.248 7.58594V8.1875H133.522C133.543 9.02083 133.785 9.69531 134.248 10.2109C134.717 10.7214 135.311 10.9766 136.03 10.9766C136.54 10.9766 136.972 10.8724 137.327 10.6641C137.681 10.4557 137.991 10.1797 138.256 9.83594L139.139 10.5234C138.431 11.612 137.368 12.1562 135.952 12.1562ZM135.772 4.57812C135.189 4.57812 134.699 4.79167 134.303 5.21875C133.907 5.64062 133.662 6.23438 133.569 7H137.803V6.89062C137.761 6.15625 137.564 5.58854 137.209 5.1875C136.855 4.78125 136.376 4.57812 135.772 4.57812ZM145.494 4.84375C145.275 4.80729 145.038 4.78906 144.783 4.78906C143.835 4.78906 143.192 5.19271 142.853 6V12H141.408V3.54688H142.814L142.838 4.52344C143.312 3.76823 143.984 3.39062 144.853 3.39062C145.135 3.39062 145.348 3.42708 145.494 3.5V4.84375Z" fill="#757575"/>
</svg>

<svg width="146" height="16" fill="none" xmlns="http://www.w3.org/2000/svg"><path d="M6.857 6.977H2.085V12h-1.5V.625h7.047v1.234H2.084V5.75h4.774v1.227zm6.707-2.133a4.332 4.332 0 00-.71-.055c-.949 0-1.592.404-1.93 1.211v6H9.477V3.547h1.406l.024.976c.474-.755 1.146-1.132 2.015-1.132.282 0 .495.036.641.109v1.344zm1.277 2.851c0-.828.161-1.573.484-2.234.328-.662.782-1.172 1.36-1.531.583-.36 1.247-.54 1.992-.54 1.15 0 2.08.4 2.789 1.196.713.797 1.07 1.857 1.07 3.18v.101c0 .823-.159 1.563-.476 2.219a3.56 3.56 0 01-1.352 1.523c-.583.365-1.255.547-2.015.547-1.146 0-2.076-.398-2.79-1.195-.708-.797-1.062-1.852-1.062-3.164v-.102zm1.453.172c0 .938.216 1.69.648 2.258.438.568 1.021.852 1.75.852.735 0 1.318-.287 1.75-.86.433-.578.649-1.385.649-2.422 0-.927-.221-1.677-.664-2.25-.438-.578-1.021-.867-1.75-.867-.714 0-1.29.284-1.727.852-.437.567-.656 1.38-.656 2.437zm9.902-4.32l.047 1.062c.646-.812 1.49-1.218 2.531-1.218 1.787 0 2.688 1.007 2.703 3.023V12h-1.445V6.406c-.005-.61-.146-1.06-.422-1.351-.27-.292-.695-.438-1.273-.438-.47 0-.88.125-1.235.375-.354.25-.63.578-.828.985V12H24.83V3.547h1.367zM36.098 1.5v2.047h1.578v1.117h-1.578v5.242c0 .339.07.594.21.766.141.166.381.25.72.25a3.5 3.5 0 00.687-.094V12c-.38.104-.75.156-1.11.156-.645 0-1.132-.195-1.46-.586-.328-.39-.492-.945-.492-1.664V4.664h-1.54V3.547h1.54V1.5h1.445zm7.261 10.656c-1.146 0-2.078-.375-2.797-1.125-.719-.755-1.078-1.763-1.078-3.023v-.266c0-.838.159-1.586.477-2.242.322-.661.77-1.177 1.343-1.547a3.38 3.38 0 011.875-.562c1.1 0 1.953.362 2.563 1.086.61.724.914 1.76.914 3.109v.601h-5.727c.021.834.263 1.508.727 2.024.469.51 1.062.766 1.781.766.51 0 .943-.105 1.297-.313a3.26 3.26 0 00.93-.828l.883.687c-.709 1.089-1.771 1.633-3.188 1.633zm-.18-7.578c-.583 0-1.073.214-1.468.64-.396.423-.641 1.016-.735 1.782h4.235v-.11c-.042-.734-.24-1.301-.594-1.702-.354-.407-.834-.61-1.438-.61zm7.004-1.031l.047 1.062c.646-.812 1.49-1.218 2.53-1.218 1.787 0 2.688 1.007 2.704 3.023V12H54.02V6.406c-.005-.61-.146-1.06-.422-1.351-.271-.292-.695-.438-1.274-.438-.468 0-.88.125-1.234.375s-.63.578-.828.985V12h-1.445V3.547h1.367zm7.59 4.156c0-1.297.306-2.338.921-3.125.615-.792 1.42-1.187 2.414-1.187.99 0 1.774.338 2.352 1.015V0h1.445v12h-1.328l-.07-.906c-.579.708-1.383 1.062-2.414 1.062-.98 0-1.78-.4-2.399-1.203-.614-.802-.922-1.849-.922-3.14v-.11zm1.444.164c0 .959.198 1.709.594 2.25.396.542.943.813 1.64.813.917 0 1.587-.412 2.009-1.235V5.812c-.433-.796-1.097-1.195-1.992-1.195-.709 0-1.26.274-1.657.82-.396.547-.593 1.357-.593 2.43zM72.31 12V.625h3.211c.99 0 1.865.219 2.625.656a4.414 4.414 0 011.758 1.867c.417.808.628 1.735.633 2.782v.726c0 1.073-.209 2.013-.625 2.82a4.338 4.338 0 01-1.774 1.86c-.765.432-1.658.654-2.68.664H72.31zm1.5-10.14v8.913h1.578c1.157 0 2.055-.359 2.696-1.078.646-.718.968-1.742.968-3.07v-.664c0-1.292-.304-2.294-.914-3.008-.604-.719-1.463-1.083-2.578-1.094h-1.75zm12.762 10.296c-1.146 0-2.079-.375-2.797-1.125-.72-.755-1.078-1.763-1.078-3.023v-.266c0-.838.158-1.586.476-2.242.323-.661.771-1.177 1.344-1.547a3.38 3.38 0 011.875-.562c1.099 0 1.953.362 2.562 1.086.61.724.914 1.76.914 3.109v.601h-5.726c.02.834.263 1.508.726 2.024.47.51 1.063.766 1.782.766.51 0 .942-.105 1.297-.313.354-.208.664-.484.93-.828l.882.687c-.708 1.089-1.77 1.633-3.187 1.633zm-.18-7.578c-.584 0-1.073.214-1.469.64-.396.423-.64 1.016-.734 1.782h4.234v-.11c-.041-.734-.24-1.301-.594-1.702-.354-.407-.833-.61-1.437-.61zm8.316 5.461l2.094-6.492h1.476L95.247 12h-1.102l-3.062-8.453h1.476l2.149 6.492zm8.839 2.117c-1.146 0-2.078-.375-2.797-1.125-.718-.755-1.078-1.763-1.078-3.023v-.266c0-.838.159-1.586.477-2.242.323-.661.771-1.177 1.344-1.547a3.38 3.38 0 011.875-.562c1.098 0 1.953.362 2.562 1.086.609.724.914 1.76.914 3.109v.601h-5.726c.02.834.263 1.508.726 2.024.469.51 1.063.766 1.781.766.511 0 .943-.105 1.297-.313.354-.208.664-.484.93-.828l.883.687c-.709 1.089-1.771 1.633-3.188 1.633zm-.179-7.578c-.584 0-1.073.214-1.469.64-.396.423-.641 1.016-.735 1.782h4.235v-.11c-.042-.734-.24-1.301-.594-1.702-.354-.407-.833-.61-1.437-.61zM110.574 12h-1.445V0h1.445v12zm2.418-4.305c0-.828.161-1.573.484-2.234.328-.662.781-1.172 1.359-1.531.584-.36 1.248-.54 1.992-.54 1.152 0 2.081.4 2.79 1.196.713.797 1.07 1.857 1.07 3.18v.101c0 .823-.159 1.563-.477 2.219a3.559 3.559 0 01-1.351 1.523c-.584.365-1.255.547-2.016.547-1.146 0-2.075-.398-2.789-1.195-.708-.797-1.062-1.852-1.062-3.164v-.102zm1.453.172c0 .938.216 1.69.648 2.258.438.568 1.021.852 1.75.852.734 0 1.318-.287 1.75-.86.432-.578.649-1.385.649-2.422 0-.927-.222-1.677-.665-2.25-.437-.578-1.02-.867-1.75-.867-.713 0-1.289.284-1.726.852-.438.567-.656 1.38-.656 2.437zm15.675 0c0 1.287-.294 2.323-.883 3.11-.588.786-1.385 1.18-2.39 1.18-1.026 0-1.834-.326-2.422-.977v4.07h-1.446V3.547h1.321l.07.937c.589-.729 1.406-1.093 2.453-1.093 1.016 0 1.818.382 2.406 1.148.594.766.891 1.83.891 3.195v.133zm-1.445-.164c0-.953-.203-1.706-.61-2.258-.406-.552-.963-.828-1.672-.828-.875 0-1.531.388-1.968 1.164v4.04c.432.77 1.093 1.156 1.984 1.156.693 0 1.242-.274 1.648-.82.412-.553.618-1.37.618-2.454zm7.277 4.453c-1.146 0-2.079-.375-2.797-1.125-.719-.755-1.078-1.763-1.078-3.023v-.266c0-.838.158-1.586.476-2.242.323-.661.771-1.177 1.344-1.547a3.38 3.38 0 011.875-.562c1.099 0 1.953.362 2.562 1.086.61.724.914 1.76.914 3.109v.601h-5.726c.021.834.263 1.508.726 2.024.469.51 1.063.766 1.782.766.51 0 .942-.105 1.297-.313a3.25 3.25 0 00.929-.828l.883.687c-.708 1.089-1.771 1.633-3.187 1.633zm-.18-7.578c-.583 0-1.073.214-1.469.64-.396.423-.641 1.016-.734 1.782h4.234v-.11c-.042-.734-.239-1.301-.594-1.702-.354-.407-.833-.61-1.437-.61zm9.722.266a4.336 4.336 0 00-.711-.055c-.948 0-1.591.404-1.93 1.211v6h-1.445V3.547h1.406l.024.976c.474-.755 1.146-1.132 2.015-1.132.282 0 .495.036.641.109v1.344z" fill="#757575"/></svg>
